svgs/thin/person-praying.svg

<svg xmlns="http://www.w3.org/2000/svg" viewBox="0 0 384 512"><!--! Font Awesome Pro 6.3.0 by @fontawesome - https://fontawesome.com License - https://fontawesome.com/license (Commercial License) Copyright 2023 Fonticons, Inc. --><path d="M225.4 297.8c7.869 9.412 19.21 14.29 30.66 14.29c8.922 0 17.9-2.959 25.35-9.037l88.01-72c17-14 19.5-39.25 5.625-56.38c-7.9-9.664-19.38-14.63-30.97-14.63c-8.945 0-17.95 2.961-25.41 9.006L261.3 216l-39-46.25c-13.75-16.43-34.21-25.77-56.17-25.77c-2.594 0-5.207 .1309-7.836 .3945c-24.13 2.5-45.25 16.25-56.38 37l-49.38 92C29.13 317 43.88 369.8 86.76 397.1L131.5 432H40C17.88 432 0 449.9 0 472S17.88 512 40 512h208c34.13 0 53.76-42.75 28.25-68.25L166.4 333.9L201.3 269L225.4 297.8zM192.8 251l-43.28 80.51c-1.672 3.109-1.107 6.947 1.391 9.443l114.1 114.1c10.26 10.26 6.426 22.25 5.004 25.68C266.9 488.1 259.5 496 248 496H40.95c-11.61 0-22.27-7.822-24.48-19.22C13.49 461.5 25.2 448 40 448h114.8c7.613 0 10.92-9.631 4.918-14.31l-64.34-50.05c-36.18-23.1-48.27-66.29-28.77-102.7l49.38-92.01c8.564-15.97 24.99-26.68 43.88-28.64c2.092-.2109 4.172-.3145 6.236-.3145c17.24 0 33.24 7.305 43.94 20.08l49.17 58.31l69.52-56.94c4.391-3.559 9.695-5.438 15.34-5.438c7.26 0 14.03 3.193 18.54 8.703c8.357 10.31 6.848 25.54-3.324 33.92l-87.99 71.99c-4.355 3.555-9.623 5.434-15.23 5.434c-7.141 0-13.84-3.115-18.4-8.572l-31.71-37.79C202.3 245.3 195.4 246 192.8 251zM255.1 128c35.38 0 63.1-28.62 63.1-64s-28.62-64-63.1-64S191.1 28.62 191.1 64S220.6 128 255.1 128zM256 16c26.47 0 48 21.53 48 48S282.5 112 256 112S208 90.47 208 64S229.5 16 256 16z"/></svg>

<svg xmlns="http://www.w3.org/2000/svg" viewBox="0 0 384 512"><!-- Font Awesome Pro 6.0.0-alpha2 by @fontawesome - https://fontawesome.com License - https://fontawesome.com/license (Commercial License) --><path d="M225.395 297.75C233.264 307.162 244.609 312.037 256.053 312.037C264.975 312.037 273.953 309.078 281.4 303L369.408 231C386.41 217 388.91 191.75 375.033 174.625C367.133 164.961 355.648 159.994 344.064 159.994C335.119 159.994 326.117 162.955 318.654 169L261.273 216L222.27 169.75C208.52 153.316 188.064 143.98 166.1 143.98C163.506 143.98 160.893 144.111 158.264 144.375C134.137 146.875 113.01 160.625 101.885 181.375L52.504 273.375C29.127 317 43.879 369.75 86.758 397.125L131.512 432H40.004C17.877 432 0 449.875 0 472S17.877 512 40.004 512H248.021C282.15 512 301.777 469.25 276.275 443.75L166.391 333.875L201.268 269L225.395 297.75ZM192.764 251.029L149.482 331.539C147.811 334.648 148.375 338.486 150.873 340.982L264.963 455.064C275.227 465.328 271.389 477.318 269.967 480.748C266.914 488.121 259.545 496 248.021 496H40.949C29.342 496 18.678 488.178 16.465 476.783C13.488 461.461 25.203 448 40.004 448H154.793C162.406 448 165.715 438.369 159.711 433.689L141.346 419.379L95.367 383.639C59.189 360.541 47.094 317.348 66.602 280.941L115.986 188.936C124.551 172.961 140.973 162.252 159.863 160.295C161.955 160.084 164.035 159.98 166.1 159.98C183.344 159.98 199.344 167.285 210.039 180.064L259.211 238.373L328.727 181.432C333.117 177.873 338.422 175.994 344.062 175.994C351.322 175.994 358.096 179.188 362.602 184.697C370.959 195.01 369.449 210.24 359.277 218.617L271.285 290.604C266.93 294.158 261.662 296.037 256.053 296.037C248.912 296.037 242.213 292.922 237.65 287.465L205.938 249.676C202.303 245.342 195.441 246.049 192.764 251.029ZM256 128C291.375 128 320 99.375 320 64S291.375 0 256 0S192 28.625 192 64S220.625 128 256 128ZM256 16C282.467 16 304 37.533 304 64S282.467 112 256 112S208 90.467 208 64S229.533 16 256 16Z"/></svg>
